X: 4072
T: The CLACHAN
R: Strathspey.
%R: strathspey
B: James Kerr "Merry Melodies" v.4 p.10 #72
Z: 2016 John Chambers <jc:trillian.mit.edu>
M: C
L: 1/8
K: D
|:\
vA2 f>A B2 g>B | A2 f>d (c<e) e2 |\
A2 f>A B2 g>B | A>BA>G (F<d) d2 :|
|:\
a2 f>d B>dg>b | a2 f>d (c<e) e2 |\
A<A f>A B<B g>B |[1 A>BA>G (F<d) d2 :|\
[2 (3ABA (3GFE (3Dfe (3dcB |]

%%sep 1 1 500
%%sep 1 1 500

